X: 4612
T: Bourree
R: barndance
M: 4/4
K: Dminor
|:A de|f4 d2ef|g4 e4|def2 e2d2|(c4c)A de|
f4 d2ef|g4 e4|def2 gfe2|1 (d4d):|2 d6||
|:a2|f6 a2|f6 a2|fga2 fgaf|g2e2e4|
efg2 efge|f2ef defg|a2 gf ede2|d6:|

